public/img/icon-lock-white.svg

<?xml version="1.0" standalone="no"?><!DOCTYPE svg PUBLIC "-//W3C//DTD SVG 1.1//EN" "http://www.w3.org/Graphics/SVG/1.1/DTD/svg11.dtd"><svg width="100%" height="100%" viewBox="0 0 14 19" version="1.1" xmlns="http://www.w3.org/2000/svg" xmlns:xlink="http://www.w3.org/1999/xlink" xml:space="preserve" style="fill-rule:evenodd;clip-rule:evenodd;stroke-linejoin:round;stroke-miterlimit:1.41421;"><path id="lock" d="M12.685,7.514c0.364,0 0.673,0.128 0.926,0.385c0.254,0.256 0.381,0.566 0.381,0.93l0,8.508c0,0.358 -0.127,0.665 -0.381,0.922c-0.253,0.256 -0.562,0.384 -0.926,0.384l-11.129,0c-0.364,0 -0.672,-0.128 -0.926,-0.384c-0.253,-0.257 -0.38,-0.564 -0.38,-0.922l0,-8.508c0,-0.364 0.127,-0.674 0.38,-0.93c0.254,-0.257 0.562,-0.385 0.926,-0.385l1.315,0l0,-2.612c0,-1.175 0.415,-2.179 1.244,-3.011c0.829,-0.832 1.831,-1.248 3.006,-1.248c1.175,0 2.177,0.416 3.006,1.248c0.829,0.832 1.243,1.836 1.243,3.011l0,2.612l1.315,0ZM3.524,4.902l0,2.612l7.193,0l0,-2.612c0,-0.99 -0.352,-1.837 -1.055,-2.541c-0.704,-0.704 -1.551,-1.056 -2.541,-1.056c-0.99,0 -1.837,0.352 -2.541,1.056c-0.704,0.704 -1.056,1.551 -1.056,2.541ZM13.338,17.337l0,-8.508c0,-0.185 -0.064,-0.34 -0.192,-0.465c-0.128,-0.125 -0.282,-0.188 -0.461,-0.188l-11.129,0c-0.179,0 -0.332,0.063 -0.461,0.188c-0.128,0.125 -0.192,0.28 -0.192,0.465l0,8.508c0,0.179 0.064,0.333 0.192,0.461c0.129,0.128 0.282,0.192 0.461,0.192l11.129,0c0.179,0 0.333,-0.064 0.461,-0.192c0.128,-0.128 0.192,-0.282 0.192,-0.461ZM7.121,11.442c0.274,0 0.507,0.095 0.698,0.286c0.19,0.191 0.286,0.423 0.286,0.698c0,0.208 -0.061,0.398 -0.184,0.568c-0.122,0.17 -0.278,0.287 -0.469,0.353l0,1.038c0,0.095 -0.033,0.174 -0.099,0.237c-0.065,0.063 -0.143,0.094 -0.232,0.094c-0.09,0 -0.167,-0.031 -0.233,-0.094c-0.065,-0.063 -0.098,-0.142 -0.098,-0.237l0,-1.038c-0.191,-0.066 -0.348,-0.183 -0.47,-0.353c-0.122,-0.17 -0.183,-0.36 -0.183,-0.568c0,-0.275 0.095,-0.507 0.286,-0.698c0.191,-0.191 0.423,-0.286 0.698,-0.286Z" style="fill:#fff;"/></svg>

<?xml version="1.0" standalone="no"?>
<!DOCTYPE svg PUBLIC "-//W3C//DTD SVG 1.1//EN" "http://www.w3.org/Graphics/SVG/1.1/DTD/svg11.dtd">
<svg width="100%" height="100%" viewBox="0 0 14 19" version="1.1" xmlns="http://www.w3.org/2000/svg" xmlns:xlink="http://www.w3.org/1999/xlink" xml:space="preserve" style="fill-rule:evenodd;clip-rule:evenodd;stroke-linejoin:round;stroke-miterlimit:1.41421;">
    <path id="lock" d="M12.685,7.514C13.049,7.514 13.358,7.642 13.611,7.899C13.865,8.155 13.992,8.465 13.992,8.829L13.992,17.337C13.992,17.695 13.865,18.002 13.611,18.259C13.358,18.515 13.049,18.643 12.685,18.643L1.556,18.643C1.192,18.643 0.884,18.515 0.63,18.259C0.377,18.002 0.25,17.695 0.25,17.337L0.25,8.829C0.25,8.465 0.377,8.155 0.63,7.899C0.884,7.642 1.192,7.514 1.556,7.514L2.871,7.514L2.871,4.902C2.871,3.727 3.286,2.723 4.115,1.891C4.944,1.059 5.946,0.643 7.121,0.643C8.296,0.643 9.298,1.059 10.127,1.891C10.956,2.723 11.37,3.727 11.37,4.902L11.37,7.514L12.685,7.514ZM3.524,4.902L3.524,7.514L10.717,7.514L10.717,4.902C10.717,3.912 10.365,3.065 9.662,2.361C8.958,1.657 8.111,1.305 7.121,1.305C6.131,1.305 5.284,1.657 4.58,2.361C3.876,3.065 3.524,3.912 3.524,4.902L3.524,4.902ZM13.338,17.337L13.338,8.829C13.338,8.644 13.274,8.489 13.146,8.364C13.018,8.239 12.864,8.176 12.685,8.176L1.556,8.176C1.377,8.176 1.224,8.239 1.095,8.364C0.967,8.489 0.903,8.644 0.903,8.829L0.903,17.337C0.903,17.516 0.967,17.67 1.095,17.798C1.224,17.926 1.377,17.99 1.556,17.99L12.685,17.99C12.864,17.99 13.018,17.926 13.146,17.798C13.274,17.67 13.338,17.516 13.338,17.337ZM7.121,11.442C7.395,11.442 7.628,11.537 7.819,11.728C8.009,11.919 8.105,12.151 8.105,12.426C8.105,12.634 8.044,12.824 7.921,12.994C7.799,13.164 7.643,13.281 7.452,13.347L7.452,14.385C7.452,14.48 7.419,14.559 7.353,14.622C7.288,14.685 7.21,14.716 7.121,14.716C7.031,14.716 6.954,14.685 6.888,14.622C6.823,14.559 6.79,14.48 6.79,14.385L6.79,13.347C6.599,13.281 6.442,13.164 6.32,12.994C6.198,12.824 6.137,12.634 6.137,12.426C6.137,12.151 6.232,11.919 6.423,11.728C6.614,11.537 6.846,11.442 7.121,11.442Z" style="fill:white;"/>
</svg>
